X: 17676
T: Holly Bush, The
R: reel
M: 4/4
K: Gmajor
|:eA3 edBd|e2dB GABd|eA3 edBd|e2dB Aegf|
eA3 edBd|e2dB GABd|edef gaba|1 gedB A2gf:|2 gedB ABBA||
|:GABd g2gd|eg/e/dg eg/e/dB|GABd g3a|gedB ABBA|
GABd g3d|egde g3a|bg3 ea3|1 gedB ABBA:|2 gedB Aggf||

